frontend/public/images/robintrack_logo.svg

<svg xmlns="http://www.w3.org/2000/svg" xmlns:xlink="http://www.w3.org/1999/xlink" width="1400" height="1400" preserveAspectRatio="none"><defs><g id="c"><path fill="#FF8CFF" d="M-123.6 975.75Q-76.9 947.8-16.7 843.2q-179.15 45.05-231.5-62.4-97.95 62.25-248.85 67.75 76.6 125.2 142.25 142.65 65.6 17.45 121.85 13.45 62.6-.95 109.35-28.9M2302 348.65q61.3-39 70.55-91.7-185.85 47.9-231.5-65.8Q2058.6 248.9 1929 260.7q-23.1 2.1-43.75 3.85 12.05 47.95 68.75 84.1 72.15 45.95 174.05 45.95T2302 348.65m152.95-164.3q-10.4-9.55-21.6-17.6-22.15-15.9-47.2-26.5v.2q5.1 22.8 5.55 46.2 17.05.25 41.45-.95 10.15-.6 21.8-1.35z"/><path fill="#33A656" fill-opacity=".46666667" d="M1719.4 1135.75q-38.25-26.6-95.4-23.1-57.2 3.5-91.4 28.55t-31.35 61.2q2.85 36.15 38.4 62.5t87.6 26.35q52 0 89-25.9t39.2-64.45q2.2-38.6-36.05-65.15m788.7-708.15q-5.4-4.95-12-9.5-38.25-26.6-95.4-23.1-57.2 3.5-91.4 28.55-2.7 2-5.2 4.05h204m-343.8 113.9q1.82128906-31.95390625-24.1-55.65h-203.95q-28.77363281 23.87167969-26.15 57.15 2.85 36.15 38.4 62.5t87.6 26.35q52 0 89-25.9t39.2-64.45z"/><path fill="#333" d="M1824.9 288.2q30-13.25 51.05-23.3-42.2 7.2-192.25 8.35-64.8 14.5-133.7 41.85 60.75 12.4 129.65 9.55 69-2.85 145.25-36.45m189.65-304.4q-8 4.95-15.4 10.35-7.85 5.2-49.1 44.85-12.4 11.85-24.5 26.6-28.25 34.5-54.75 84.9-37.75 71.7-260.65 119.4 88.5-5.1 139.6-5.25 42-.1 137-8.1 20.65-1.75 43.75-3.85 129.6-11.8 212.05-69.55 45.65 113.7 231.5 65.8.2-.1.45-.15 8.7-33.3 8.25-65.5-.4-23.45-5.8-46.15-7.45-32.65-25-64.3-1.3-2.35-2.7-4.7l.25-.4q-34.45-60.25-92.3-91.15-10.1-5.4-20.9-9.85-13.9-5.8-28.95-10.1-80.65-23.2-155.1 7.85-13.55 5.6-27 13-5.5 3.05-10.7 6.3m289.9 162.9q-3.7-14.5-16.55-21.85-12.95-7.5-27.35-3.6-11.1 3-18 11.6-1.9 2.35-3.5 5.15-2.3 3.8-3.45 7.8-.1.25-.15.5l-.1-.5q-2.2-12.55 4.3-23.7 1.35-2.3 2.9-4.3 7.2-9.3 19.15-12.45 8.55-2.35 16.55-.65 5.55 1.15 10.8 4.25 4.2 2.45 7.5 5.65 6.65 6.55 9.25 16.3 2.9 10.5-.4 20.05-.2-2.25-.95-4.25z"/><path fill="#337762" fill-opacity=".5372549" d="M961.9-44.4q-3.5 6-2.2 12.8.6-2.25 1.9-4.4 3.85-6.8 11.35-8.85 7.6-2.05 14.45 1.9 6.8 3.9 8.75 11.55.4 1.05.5 2.25 1.75-5.05.2-10.6-2.05-7.65-8.85-11.6-6.8-4-14.45-1.9-7.65 2.05-11.65 8.85z"/><path fill="#FF8CFF" fill-opacity=".5372549" d="M724.05-100.55q-12.95-4.4-24.85-8.15 2.8 35.4 44.35 60.9 44.6 27.4 107.65 27.4 63.05 0 107.65-27.4 26.4-16.2 37.2-36.35-.2.1-.4.25-4.6 3.25-55.95-17.2t-70.95-17.5L846-103.45q-44.1 29.35-121.95 2.9z"/><path fill="#333" fill-opacity=".5372549" d="M814.5-252.35q8.2 1.35 18.85 7.25 10.15 5.65 18.5 14.35 15.35 16.1 22.95 40.45 5.5 17.6 5 34.85-.45 17.25-6.95 31.5 20.5-.6 66.85 17.85 51.35 20.45 55.95 17.2.2-.15 1.55-1.75 1.3-1.65 4.25-5.75 2.9-4.15 10.95-23.95 3.95-9.8 6.2-16.3 2.3-6.65 2.8-9.85.15.2.6-2.35.65-3.9 2-11.85v-.2q1.3-8.15 1.9-13.75 4.1-40.5-27.65-70-36.2-33.65-115.75-37.7-47.7-2.45-108 28 .7-.05 1.4-.05 1.55 0 8.45-.25 6.85-.25 14.4.35 7.55.55 15.75 1.95m118.95 74.75q.7-9.05 7.2-15.5 7.3-7.3 17.7-7.3 10.45 0 17.75 7.3 7.3 7.35 7.3 17.75.05 7.6-3.85 13.45.25-1.6.15-3.05.1-10.4-7.2-17.65-7.35-7.35-17.7-7.25-10.2 0-17.45 7.35-2.35 2.25-3.9 4.9m-79.85-45.55q-13.45-16.5-28.45-22.2-15-5.7-27.25-6.4-12.25-.75-18.35-.4-6.1.35-7.9 1-1.8.6-10.95 5.2-31.85 15.95-72.4 46.85-63 47.9-84.8 63.8 35.55 2.75 95.55 21.55.05 0 .15.05 11.9 3.75 24.85 8.15Q801.9-79.1 846-108.45l22.75-16.3-.45.75q.1-.15 1.05-1.6 3.6-5.15 5.35-14.55 4.05-21.75-1.55-43.8-5.6-22.05-19.55-39.2z"/></g><g id="d"><path fill="#333" d="M300.5 521.55l4.1.2q35.05 1.3 73.15-6.45 40.4-8.3 82.3-36.55 16.55-11.1 28.15-19.4-24.3 8.5-112.5 23.4-34.9 14.45-71.1 36.3l-4.1 2.5m371.75 42.05q10.5 8.1 15.25 18v-.05q.25-9.15-3.5-17-.45-1.05-1.15-2.2-4.45-8.2-13.35-15.05-16.15-12.25-38.45-13.45h-.9q-1.15-.05-2.35-.1-1.35 0-2.7.05-26.25.45-45.05 15.1-18.8 14.65-19 34.85 4.6-9.35 14.2-17.2.8-.65 1.5-1.2.85-.7 1.6-1.2 18.85-13.95 44.6-14.9h4.5q1.75 0 3.5.05 23.9 1.1 41.3 14.3m-.25-17.55q8.8 6.75 13.25 15 .65 1.25 1.25 2.3 9.35 7.55 13.7 16.7.35-20.2-17.95-34.2-17.3-13.25-41.8-13.55h-2.7q-2.6 0-5.15.3.45 0 .95-.05 22.3 1.15 38.45 13.5m-19.4-14.65q-1.35.1-2.75.1-2.5.05-5.1.2.5.05.95 0 22.3 1.2 38.4 13.5 8.8 6.7 13.35 14.95.65 1.2 1.15 2.35 9.25 7.6 13.7 16.8.35-20.3-17.9-34.25-17.35-13.3-41.8-13.65m96.1-239.95l.1-.25q-25.4-34.5-62.15-48.35-6.5-2.4-13.2-4.2-8.7-2.35-18-3.6-49.45-6.9-90.55 19.55-7.6 4.8-14.85 10.75-2.95 2.4-5.75 4.85-4.3 3.85-8.2 7.95-3.8 3.55-20.8 26.9l-1.7 2.3q-1.3 1.7-2.55 3.5-6.2 8.55-12.05 18.95-13.65 24.3-25 58.4-16 48.4-143.1 99.3 51.6-11.5 81.75-16.4 24.75-4.05 79.95-18.05 12-3.05 25.4-6.5Q593.4 426.9 636.9 383q36.75 66.9 142.05 19.35l.2-.1q2.3-21.7-.7-41.9-2.3-14.6-7.4-28.3-4.6-12.7-11.7-24.7-.7-1.15-1.35-2.3-3.45-5.5-7.35-10.85-.85-1.35-1.95-2.75m-47.6 41.65q-6.35 2.95-9.6 9-.85 1.6-1.6 3.5-1.05 2.65-1.4 5.15-.096875.2421875-.05.45-.053125-.20625-.15-.4-2.3-7.6.55-15.2.6-1.55 1.35-2.95 3.35-6.55 10.15-9.6 4.8-2.3 9.8-2 3.3.25 6.7 1.65 2.6 1.1 4.85 2.8 4.5 3.45 6.9 9.4 2.65 6.25 1.5 12.5-.4-1.35-.95-2.55-3.4-8.65-11.6-12.05-8.4-3.5-16.45.3z"/><path fill="#F39" d="M745.05 472.85q21.4-22.7 33.75-64.1-106.15 46.1-142.7-16.95-42.95 41.5-118.3 61.2-13.45 3.4-25.4 6.5 38.85 25.75 80.05 42.7 41.05 16.9 87.65 11.55 46.5-5.35 84.95-40.9m61.8-127.35q-14.5-7.9-30.2-12.2v.15q5.05 13.85 7.35 28.45 15.65.65 23.95-2.25 8.15-2.95 13.05-5.15-6.9-5-14.15-9z"/></g></defs><use transform="translate(1771 -465)" xlink:href="#a"/><use transform="translate(-701 5)" xlink:href="#b"/><use xlink:href="#c"/><use width="100%" height="100%" transform="matrix(2.44513 0 0 2.44513 -684.49322 -396.22458)" xlink:href="#d"/><g transform="matrix(2.44513 0 0 2.44513 6.98937432 967.17957344)"><clipPath id="e"><path fill="#fff" d="M-2-2h505.79999v126.9H-2z"/></clipPath><g aria-label="Robintrack" clip-path="url(#e)" font-family="PT Sans" font-size="95"><path fill="#f39" d="M25.925 30.864997q3.61-.665 8.265-1.045 4.75-.38 8.645-.38 4.37 0 8.265.95 3.99.95 6.935 3.135 3.04 2.185 4.845 5.7 1.805 3.515 1.805 8.55 0 7.79-4.275 12.635t-10.83 6.46l4.56 3.515 16.53 26.315h-9.215l-18.335-28.69-9.31-1.425v30.115h-7.885zm17.1 5.415H40.46q-1.33 0-2.565.095-1.235.095-2.375.19-1.045.095-1.71.285v24.51h7.41q6.555 0 10.83-3.23t4.275-10.07q0-5.13-3.515-8.455t-9.785-3.325zM74.458125 72.949997q0-12.065 5.32-18.43 5.415-6.46 15.485-6.46 5.320005 0 9.215005 1.805 3.99 1.71 6.555 5.035 2.565 3.23 3.8 7.885 1.235 4.56 1.235 10.165 0 12.065-5.415 18.525-5.32 6.365-15.390005 6.365-5.32 0-9.31-1.71-3.895-1.805-6.46-5.035-2.565-3.325-3.8-7.885-1.235-4.655-1.235-10.26zm7.885 0q0 3.61.665 6.935.76 3.325 2.28 5.795 1.52 2.47 3.99 3.99t5.985 1.52q12.920005.095 12.920005-18.24 0-3.705-.76-7.03-.665-3.325-2.185-5.795-1.52-2.47-3.99-3.895-2.470005-1.52-5.985005-1.52-12.92-.095-12.92 18.24zM127.95797 30.199997h7.6v23.655h.38q2.185-2.755 5.51-4.275 3.42-1.52 7.41-1.52 9.215 0 13.775 5.89 4.655 5.89 4.655 18.24 0 12.445-6.08 18.905-6.08 6.46-17.1 6.46-5.32 0-9.69-1.14-4.275-1.14-6.46-2.47zm19.57 24.51q-4.75 0-7.695 2.66-2.945 2.66-4.275 7.505v23.94q1.805 1.045 4.37 1.615 2.565.475 5.32.475 6.46 0 10.26-4.56 3.895-4.56 3.895-14.25 0-3.705-.665-6.935-.665-3.23-2.09-5.51-1.425-2.28-3.705-3.61-2.185-1.33-5.415-1.33zM180.78391 49.199997h7.6v47.5h-7.6zm-1.615-14.44q0-2.185 1.425-3.705 1.52-1.615 3.8-1.615t3.895 1.615q1.615 1.52 1.615 3.705t-1.615 3.61q-1.615 1.425-3.895 1.425-2.28 0-3.8-1.425-1.425-1.425-1.425-3.61zM235.08383 96.699997v-27.075q0-7.41-2.185-11.115-2.09-3.8-7.79-3.8-5.035 0-8.36 2.755-3.23 2.66-4.56 6.745v32.49h-7.6v-47.5h5.32l1.425 5.795h.38q2.28-3.04 6.08-4.94 3.895-1.995 9.215-1.995 3.895 0 6.84.95 2.945.855 4.845 3.135 1.995 2.28 2.945 6.175 1.045 3.8 1.045 9.69v28.69z" baseline-shift="0%"/><path fill="#333" d="M250.27195 49.199997h7.41v-9.405l7.6-2.185v11.59h12.92v6.65h-12.92v26.315q0 4.94 1.235 7.03 1.235 1.995 4.18 1.995 2.47 0 4.18-.475 1.71-.57 3.8-1.425l1.71 5.795q-2.565 1.235-5.605 1.995-3.04.76-6.555.76-5.795 0-8.17-3.23-2.375-3.325-2.375-11.02v-27.74h-7.41zM311.24711 56.514997q-2.85-.95-5.415-.95-4.085 0-6.46 2.28-2.375 2.185-2.945 5.605v33.25h-7.6v-47.5h5.32l1.425 5.795h.38q1.805-3.23 4.275-4.94 2.565-1.805 6.46-1.805 2.755 0 6.175.95zM320.35227 52.714997q3.61-2.185 8.36-3.23 4.845-1.045 10.07-1.045 4.94 0 7.885 1.33 3.04 1.33 4.56 3.515 1.615 2.09 2.09 4.655.57 2.565.57 5.13 0 5.7-.285 11.115t-.285 10.26q0 3.515.285 6.65.285 3.135 1.045 5.795h-5.605l-1.995-6.65h-.475q-.855 1.33-2.185 2.66-1.235 1.235-3.04 2.28-1.805.95-4.18 1.615t-5.415.665q-3.04 0-5.7-.95-2.565-.95-4.465-2.66-1.9-1.805-3.04-4.275-1.045-2.47-1.045-5.605 0-4.18 1.71-6.935 1.71-2.85 4.75-4.465 3.135-1.71 7.41-2.375 4.37-.76 9.595-.76h2.565q1.33 0 2.66.19.285-2.85.285-5.13 0-5.225-2.09-7.315-2.09-2.09-7.6-2.09-1.615 0-3.515.285-1.805.19-3.8.665-1.9.38-3.705 1.045-1.71.57-3.04 1.33zm13.49 38.095q2.66 0 4.75-.665 2.09-.76 3.61-1.805 1.52-1.14 2.47-2.47 1.045-1.33 1.52-2.565v-7.885q-1.33-.095-2.755-.095-1.33-.095-2.66-.095-2.945 0-5.795.38-2.755.285-4.94 1.235-2.09.855-3.42 2.47-1.235 1.52-1.235 3.895 0 3.325 2.375 5.51 2.375 2.09 6.08 2.09zM400.63617 93.564997q-2.85 2.09-6.745 3.135-3.895 1.14-8.17 1.14-5.51 0-9.31-1.71-3.8-1.805-6.27-5.035-2.375-3.325-3.515-7.885-1.045-4.655-1.045-10.26 0-12.065 5.32-18.43 5.32-6.46 15.295-6.46 4.56 0 7.695.76 3.23.665 5.795 1.995l-2.185 6.555q-2.185-1.235-4.845-1.9-2.66-.76-5.7-.76-13.49 0-13.49 18.24 0 3.61.665 6.935.76 3.23 2.375 5.795 1.71 2.47 4.37 3.99 2.755 1.52 6.745 1.52 3.42 0 6.08-1.045 2.755-1.045 4.465-2.375zM423.0725 75.324997h-4.37v21.375h-7.6v-66.5h7.6v40.47l3.895-1.33 14.725-20.14h8.835l-14.535 19.095-3.895 3.135 4.75 3.8 15.865 21.47h-9.405z" baseline-shift="0%"/></g></g></svg>

<svg xmlns="http://www.w3.org/2000/svg" version="1.1" xmlns:xlink="http://www.w3.org/1999/xlink" preserveAspectRatio="none" x="0px" y="0px" width="1400px" height="1400px" viewBox="0 0 1400 1400">
<defs>
<image id="FL_9a91c796_527b_48bf_84a3_f8b159917d52_jpg" x="0" y="0" width="640" height="480" xlink:href="./images/FL_9a91c796_527b_48bf_84a3_f8b159917d52_jpg.jpg"/>

<image id="pink_robin_1_jpg" x="0" y="0" width="640" height="427" xlink:href="./images/pink_robin_1_jpg.jpg"/>

<g id="Layer1_0_FILL">
<path fill="#FF8CFF" stroke="none" d="
M -123.6 975.75
Q -76.9 947.8 -16.7 843.2 -195.85 888.25 -248.2 780.8 -346.15 843.05 -497.05 848.55 -420.45 973.75 -354.8 991.2 -289.2 1008.65 -232.95 1004.65 -170.35 1003.7 -123.6 975.75
M 2302 348.65
Q 2363.3 309.65 2372.55 256.95 2186.7 304.85 2141.05 191.15 2058.6 248.9 1929 260.7 1905.9 262.8 1885.25 264.55 1897.3 312.5 1954 348.65 2026.15 394.6 2128.05 394.6 2229.95 394.6 2302 348.65
M 2454.95 184.35
Q 2444.55 174.8 2433.35 166.75 2411.2 150.85 2386.15 140.25 2386.15 140.35 2386.15 140.45 2391.25 163.25 2391.7 186.65 2408.75 186.9 2433.15 185.7 2443.3 185.1 2454.95 184.35 Z"/>

<path fill="#33A656" fill-opacity="0.4666666666666667" stroke="none" d="
M 1719.4 1135.75
Q 1681.15 1109.15 1624 1112.65 1566.8 1116.15 1532.6 1141.2 1498.4 1166.25 1501.25 1202.4 1504.1 1238.55 1539.65 1264.9 1575.2 1291.25 1627.25 1291.25 1679.25 1291.25 1716.25 1265.35 1753.25 1239.45 1755.45 1200.9 1757.65 1162.3 1719.4 1135.75
M 2508.1 427.6
Q 2502.7 422.65 2496.1 418.1 2457.85 391.5 2400.7 395 2343.5 398.5 2309.3 423.55 2306.6 425.55 2304.1 427.6
L 2508.1 427.6
M 2164.3 541.5
Q 2166.1212890625 509.54609375 2140.2 485.85
L 1936.25 485.85
Q 1907.4763671875 509.7216796875 1910.1 543 1912.95 579.15 1948.5 605.5 1984.05 631.85 2036.1 631.85 2088.1 631.85 2125.1 605.95 2162.1 580.05 2164.3 541.5 Z"/>

<path fill="#333333" stroke="none" d="
M 1824.9 288.2
Q 1854.9 274.95 1875.95 264.9 1833.75 272.1 1683.7 273.25 1618.9 287.75 1550 315.1 1610.75 327.5 1679.65 324.65 1748.65 321.8 1824.9 288.2
M 2014.55 -16.2
Q 2006.55 -11.25 1999.15 -5.85 1991.3 -0.65 1950.05 39 1937.65 50.85 1925.55 65.6 1897.3 100.1 1870.8 150.5 1833.05 222.2 1610.15 269.9 1698.65 264.8 1749.75 264.65 1791.75 264.55 1886.75 256.55 1907.4 254.8 1930.5 252.7 2060.1 240.9 2142.55 183.15 2188.2 296.85 2374.05 248.95 2374.25 248.85 2374.5 248.8 2383.2 215.5 2382.75 183.3 2382.35 159.85 2376.95 137.15 2369.5 104.5 2351.95 72.85 2350.65 70.5 2349.25 68.15
L 2349.5 67.75
Q 2315.05 7.5 2257.2 -23.4 2247.1 -28.8 2236.3 -33.25 2222.4 -39.05 2207.35 -43.35 2126.7 -66.55 2052.25 -35.5 2038.7 -29.9 2025.25 -22.5 2019.75 -19.45 2014.55 -16.2
M 2304.45 146.7
Q 2300.75 132.2 2287.9 124.85 2274.95 117.35 2260.55 121.25 2249.45 124.25 2242.55 132.85 2240.65 135.2 2239.05 138 2236.75 141.8 2235.6 145.8 2235.5 146.05 2235.45 146.3 2235.4 146.05 2235.35 145.8 2233.15 133.25 2239.65 122.1 2241 119.8 2242.55 117.8 2249.75 108.5 2261.7 105.35 2270.25 103 2278.25 104.7 2283.8 105.85 2289.05 108.95 2293.25 111.4 2296.55 114.6 2303.2 121.15 2305.8 130.9 2308.7 141.4 2305.4 150.95 2305.2 148.7 2304.45 146.7 Z"/>

<path fill="#337762" fill-opacity="0.5372549019607843" stroke="none" d="
M 961.9 -44.4
Q 958.4 -38.4 959.7 -31.6 960.3 -33.85 961.6 -36 965.45 -42.8 972.95 -44.85 980.55 -46.9 987.4 -42.95 994.2 -39.05 996.15 -31.4 996.55 -30.35 996.65 -29.15 998.4 -34.2 996.85 -39.75 994.8 -47.4 988 -51.35 981.2 -55.35 973.55 -53.25 965.9 -51.2 961.9 -44.4 Z"/>

<path fill="#FF8CFF" fill-opacity="0.5372549019607843" stroke="none" d="
M 724.05 -100.55
Q 711.1 -104.95 699.2 -108.7 702 -73.3 743.55 -47.8 788.15 -20.4 851.2 -20.4 914.25 -20.4 958.85 -47.8 985.25 -64 996.05 -84.15 995.85 -84.05 995.65 -83.9 991.05 -80.65 939.7 -101.1 888.35 -121.55 868.75 -118.6
L 846 -103.45
Q 801.9 -74.1 724.05 -100.55 Z"/>

<path fill="#333333" fill-opacity="0.5372549019607843" stroke="none" d="
M 814.5 -252.35
Q 822.7 -251 833.35 -245.1 843.5 -239.45 851.85 -230.75 867.2 -214.65 874.8 -190.3 880.3 -172.7 879.8 -155.45 879.35 -138.2 872.85 -123.95 893.35 -124.55 939.7 -106.1 991.05 -85.65 995.65 -88.9 995.85 -89.05 997.2 -90.65 998.5 -92.3 1001.45 -96.4 1004.35 -100.55 1012.4 -120.35 1016.35 -130.15 1018.6 -136.65 1020.9 -143.3 1021.4 -146.5 1021.55 -146.3 1022 -148.85 1022.65 -152.75 1024 -160.7 1024 -160.8 1024 -160.9 1025.3 -169.05 1025.9 -174.65 1030 -215.15 998.25 -244.65 962.05 -278.3 882.5 -282.35 834.8 -284.8 774.5 -254.35 775.2 -254.4 775.9 -254.4 777.45 -254.4 784.35 -254.65 791.2 -254.9 798.75 -254.3 806.3 -253.75 814.5 -252.35
M 933.45 -177.6
Q 934.15 -186.65 940.65 -193.1 947.95 -200.4 958.35 -200.4 968.8 -200.4 976.1 -193.1 983.4 -185.75 983.4 -175.35 983.45 -167.75 979.55 -161.9 979.8 -163.5 979.7 -164.95 979.8 -175.35 972.5 -182.6 965.15 -189.95 954.8 -189.85 944.6 -189.85 937.35 -182.5 935 -180.25 933.45 -177.6
M 853.6 -223.15
Q 840.15 -239.65 825.15 -245.35 810.15 -251.05 797.9 -251.75 785.65 -252.5 779.55 -252.15 773.45 -251.8 771.65 -251.15 769.85 -250.55 760.7 -245.95 728.85 -230 688.3 -199.1 625.3 -151.2 603.5 -135.3 639.05 -132.55 699.05 -113.75 699.1 -113.75 699.2 -113.7 711.1 -109.95 724.05 -105.55 801.9 -79.1 846 -108.45
L 868.75 -124.75 868.3 -124
Q 868.4 -124.15 869.35 -125.6 872.95 -130.75 874.7 -140.15 878.75 -161.9 873.15 -183.95 867.55 -206 853.6 -223.15 Z"/>
</g>

<g id="Logo_idee_1_0_Layer1_0_FILL">
<path fill="#333333" stroke="none" d="
M 300.5 521.55
Q 302.55 521.65 304.6 521.75 339.65 523.05 377.75 515.3 418.15 507 460.05 478.75 476.6 467.65 488.2 459.35 463.9 467.85 375.7 482.75 340.8 497.2 304.6 519.05 302.55 520.3 300.5 521.55
M 672.25 563.6
Q 682.75 571.7 687.5 581.6
L 687.5 581.55
Q 687.75 572.4 684 564.55 683.55 563.5 682.85 562.35 678.4 554.15 669.5 547.3 653.35 535.05 631.05 533.85 630.65 533.85 630.15 533.85 629 533.8 627.8 533.75 626.45 533.75 625.1 533.8 598.85 534.25 580.05 548.9 561.25 563.55 561.05 583.75 565.65 574.4 575.25 566.55 576.05 565.9 576.75 565.35 577.6 564.65 578.35 564.15 597.2 550.2 622.95 549.25
L 624.4 549.25
Q 624.55 549.25 624.75 549.25 626.15 549.25 627.45 549.25 629.2 549.25 630.95 549.3 654.85 550.4 672.25 563.6
M 672 546.05
Q 680.8 552.8 685.25 561.05 685.9 562.3 686.5 563.35 695.85 570.9 700.2 580.05 700.55 559.85 682.25 545.85 664.95 532.6 640.45 532.3 639.1 532.3 637.75 532.3 635.15 532.3 632.6 532.6 633.05 532.6 633.55 532.55 655.85 533.7 672 546.05
M 652.6 531.4
Q 651.25 531.5 649.85 531.5 647.35 531.55 644.75 531.7 645.25 531.75 645.7 531.7 668 532.9 684.1 545.2 692.9 551.9 697.45 560.15 698.1 561.35 698.6 562.5 707.85 570.1 712.3 579.3 712.65 559 694.4 545.05 677.05 531.75 652.6 531.4
M 748.7 291.45
L 748.8 291.2
Q 723.4 256.7 686.65 242.85 680.15 240.45 673.45 238.65 664.75 236.3 655.45 235.05 606 228.15 564.9 254.6 557.3 259.4 550.05 265.35 547.1 267.75 544.3 270.2 540 274.05 536.1 278.15 532.3 281.7 515.3 305.05 514.45 306.2 513.6 307.35 512.3 309.05 511.05 310.85 504.85 319.4 499 329.8 485.35 354.1 474 388.2 458 436.6 330.9 487.5 382.5 476 412.65 471.1 437.4 467.05 492.6 453.05 504.6 450 518 446.55 593.4 426.9 636.9 383 673.65 449.9 778.95 402.35 779.05 402.3 779.15 402.25 781.45 380.55 778.45 360.35 776.15 345.75 771.05 332.05 766.45 319.35 759.35 307.35 758.65 306.2 758 305.05 754.55 299.55 750.65 294.2 749.8 292.85 748.7 291.45
M 701.1 333.1
Q 694.75 336.05 691.5 342.1 690.65 343.7 689.9 345.6 688.85 348.25 688.5 350.75 688.403125 350.9921875 688.45 351.2 688.396875 350.99375 688.3 350.8 686 343.2 688.85 335.6 689.45 334.05 690.2 332.65 693.55 326.1 700.35 323.05 705.15 320.75 710.15 321.05 713.45 321.3 716.85 322.7 719.45 323.8 721.7 325.5 726.2 328.95 728.6 334.9 731.25 341.15 730.1 347.4 729.7 346.05 729.15 344.85 725.75 336.2 717.55 332.8 709.15 329.3 701.1 333.1 Z"/>

<path fill="#FF3399" stroke="none" d="
M 745.05 472.85
Q 766.45 450.15 778.8 408.75 672.65 454.85 636.1 391.8 593.15 433.3 517.8 453 504.35 456.4 492.4 459.5 531.25 485.25 572.45 502.2 613.5 519.1 660.1 513.75 706.6 508.4 745.05 472.85
M 806.85 345.5
Q 792.35 337.6 776.65 333.3 776.65 333.4 776.65 333.45 781.7 347.3 784 361.9 799.65 362.55 807.95 359.65 816.1 356.7 821 354.5 814.1 349.5 806.85 345.5 Z"/>
</g>
</defs>

<g transform="matrix( 1, 0, 0, 1, 1771,-465) ">
<use xlink:href="#FL_9a91c796_527b_48bf_84a3_f8b159917d52_jpg"/>
</g>

<g transform="matrix( 1, 0, 0, 1, -701,5) ">
<use xlink:href="#pink_robin_1_jpg"/>
</g>

<g transform="matrix( 1, 0, 0, 1, 0,0) ">
<use xlink:href="#Layer1_0_FILL"/>
</g>

<g transform="matrix( 2.44512939453125, 0, 0, 2.44512939453125, -648.9,-437.75) ">
<g transform="matrix( 1, 0, 0, 1, 0,0) ">
<use xlink:href="#Logo_idee_1_0_Layer1_0_FILL"/>
</g>

<g transform="matrix( 1, 0, 0, 1, 282.8,557.6) ">
<clipPath id="Mask_Mask_1">
<rect x="-2" y="-2" width="505.8" height="126.9" fill="#FFFFFF" stroke="none"/>
</clipPath>

<text clip-path="url(#Mask_Mask_1)" writing-mode="lr"><tspan x="17.85" y="96.7" baseline-shift="0%" font-family="PT Sans" font-size="95" fill="#FF3399" xml:space="preserve">Robin</tspan><tspan baseline-shift="0%" font-family="PT Sans" font-size="95" fill="#333333" xml:space="preserve">track</tspan></text>
</g>
</g>
</svg>
